X:1
T:Title
%%score { ( 1 3 ) | ( 2 4 ) }
L:1/8
M:4/4
K:Ab
V:1 treble nm="Grand Piano"
V:3 treble 
V:2 bass 
V:4 bass 
V:1
 z4 z z/[Q:1/4=100] E/ A>B | c6 z2 | A6[K:bass] z2 | [A,DF]3 [DA] [Fd]2 [Fd]2 | [Ec]4- [Ec]>E A>B | %5
 c6 z2 | d6 z2 | [Ec]3 B A2 G2 |[M:11/16] F/-F/-F/-F/-F/-F/-F/-F-<F |[M:5/16] C<FG/ | %10
[M:4/4] A6 z2 | c6 z2 | G6 z2 | F6 z2 | c6 z2 | d6 z2 | [Ec]3 B A2 G2 | %17
[M:11/16] [CA]/-[CA]/-[CA]/-[CA]/-[CA]/-[CA]/-[CA]/-[CA]-<[CA] |] %18
V:2
 z4 z z/ C/ C>D | E6 z2 | C6 z2 | D,3 [D,F,] [D,A,]2 [D,A,]2 | [A,,A,]4- [A,,A,]>C C>D | %5
 E6[K:treble] z2 | F6[K:bass] z2 | [C,A,]3 [D,F,D] [E,A,C]2 [F,B,C]2 | %8
[M:11/16] [F,A,C]/-[F,A,C]/-[F,A,C]/-[F,A,C]/-[F,A,C]/-[F,A,C]/-[F,A,C]/-[F,A,C]-<[F,A,C] | %9
[M:5/16] z5/2 |[M:4/4] z z/ [F,A,]/ [F,A,]>[F,A,] [F,A,]2 z2 | %11
 z z/ [F,A,]/ [F,A,]>[F,A,] [F,A,]2 z2 | z z/ [C,C]/ [C,C]>[C,C] [C,C]2 z2 | %13
 z z/ [F,A,]/ [F,A,]>[F,A,] [F,A,]>C[K:treble] C>D | E4- E>_G G>G | F6[K:bass] z2 | %16
 [C,A,]3 [D,F,D] [E,C]2 [E,D]2 | %17
[M:11/16] [A,,E,]/-[A,,E,]/-[A,,E,]/-[A,,E,]/-[A,,E,]/-[A,,E,]/-[A,,E,]/-[A,,E,]-<[A,,E,] |] %18
V:3
 x8 | z z/ A,/ A,>A, A,>E G>B | z z/[K:bass] A,/ A,>A, A,2 [A,CE]2 | x8 | x8 | %5
 z z/ A,/ A,>A, A,>e e>e | z z/ A,/ A,>A, A,2 [Fd]2 | x8 |[M:11/16] x11/2 |[M:5/16] x5/2 | %10
[M:4/4] z z/ C/ C>C C>G A>B | z z/ F/ F>F F>c c>A | z z/ =E/ E>E E>A G>G | z z/ C/ C>C C>E A>B | %14
 z z/ A,/ A,>A, A,>e e>e | z z/ A,/ A,>A, A,2 [Fd]2 | x8 |[M:11/16] x11/2 |] %18
V:4
 x8 | z z/ A,,/ A,,>A,, A,,>C B,>D | z z/ A,,/ A,,>A,, A,,2 A,,2 | x8 | x8 | %5
 z z/ A,,/ A,,>A,, A,,>[K:treble]_G G>G | z z/[K:bass] D,/ D,>D, D,2 [B,,A,]2 | x8 | %8
[M:11/16] x11/2 |[M:5/16] x5/2 |[M:4/4] x8 | x8 | x8 | x6[K:treble] x2 | x8 | %15
 z z/[K:bass] D,/ D,>D, D,2 [B,,A,]2 | x8 |[M:11/16] x11/2 |] %18

